X:48
T:The miller of Glanmire
C:anon.
O:Ireland
B:Francis O'Neill: The Dance Music of Ireland no. 48
R:Double jig
Z:Transcribed by Frank Nordberg - http://www.musicaviva.com
%http://www.musicaviva.com/abc/oneill100.abc
M:6/8
L:1/8
Q:3/8=128
K:Am
G|EAA EAA|"   ~"NB3 G2A|Bee edB|de^f gag|eaa age|dBG G2A|Bee dBG|BAA A2:|
d|eaa age|dBG G2A|Bee edB|de^f gag|eaa age|dBG G2A|Bee dBG|BAA A2:|


